X:1
T:Death of Robin Hood
M:6/8
L:1/8
K:A
 A| F2 F E2 C| B,2 C E2 E| F2 F E2 E| C3 z2 A| F2 F E2 C| B,2 C E2 E|\
 F2 F E2 E| C3 z2 E| A2 A B2 B| c2 cB/2-A/2 z E| A2 A B2 B| c3 z2 E|\
 AAA B2 B| c2 c B/2A/2 z G| A2 A F2 F| C3- C2||
